img/logo.svg

<?xml version="1.0" encoding="UTF-8"?>
<svg width="91px" height="36px" viewBox="0 0 91 36" version="1.1" xmlns="http://www.w3.org/2000/svg" xmlns:xlink="http://www.w3.org/1999/xlink">
    <!-- Generator: Sketch 46.2 (44496) - http://www.bohemiancoding.com/sketch -->
    <title>logo</title>
    <desc>Created with Sketch.</desc>
    <defs></defs>
    <g id="Symbols" stroke="none" stroke-width="1" fill="none" fill-rule="evenodd">
        <g id="menu" transform="translate(-30.000000, -30.000000)">
            <g id="logo">
                <g transform="translate(30.000000, 30.000000)">
                    <g id="colour">
                        <path d="M30.9348442,12.7883871 C25.2338102,9.32387097 17.5233003,13.1303226 22.5128329,8.03741935 C27.9109632,2.52774194 30.4514873,6.04387097 31.0560057,8.64258065 C31.6321671,11.12 36.4077337,9.23225806 35.2141643,4.70709677 C34.3789235,1.5483871 29.1303116,0.0516129032 25.4580878,0.692903226 C20.6992776,1.52258065 12.0916572,8.26580645 12.310779,17.8774194 C12.5750142,29.4658065 17.746289,34.9096774 23.8700992,35.6619355 C36.2504816,37.1922581 39.3516997,17.9045161 30.9348442,12.7883871 Z M29.5775779,23.3548387 C28.746204,29.8193548 24.1330453,29.916129 21.1246317,26.7393548 C18.3018272,23.7587097 16.7950425,17.28 20.9235552,16.9535484 C26.1128754,16.5393548 30.0441785,19.7187097 29.5775779,23.3548387 Z" id="Shape" fill="#6666FF" fill-rule="nonzero"></path>
                        <path d="M49.9275496,15.8335484 C49.4957507,12.7251613 47.9863881,6.83870968 46.9075354,3.87096774 C45.8286827,0.903225806 48.5380595,3.0683871 49.941728,3.67354839 C51.3453966,4.27870968 52.0156516,7.00387097 52.8470255,11.1909677 C53.6203966,15.0722581 53.3626062,12.9870968 54.841034,10.1316129 C57.1598584,5.64129032 56.6765014,5.79225806 59.1255099,5.84258065 C60.8398159,5.87870968 62.253796,5.89290323 60.3861048,8.21419355 C58.5184136,10.5354839 56.7577054,14.1187097 55.9005524,17.6503226 C55.0433994,21.1819355 53.8923654,21.1896774 51.9692493,20.8283871 C49.1464448,20.2993548 50.5075779,19.9832258 49.9275496,15.8335484 Z M69.5582861,5.33806452 C79.6894476,4.5316129 76.8640652,5.35225806 76.813796,8.27483871 C76.7635269,11.1974194 76.5121813,10.7935484 71.3202833,10.3393548 C68.2461331,9.98709677 67.8942493,10.3406452 66.8347309,12.0683871 C65.7752125,13.796129 67.8929603,12.8619355 71.0173796,14.2748387 C74.1417989,15.6877419 75.4526629,14.88 74.4447025,17.6554839 C73.6391076,20.2283871 72.854136,20.1109677 68.8003824,18.0593548 C67.0899433,17.1935484 64.3174079,16.4451613 63.5079462,17.9083871 C62.6984844,19.3716129 60.2791218,20.1780645 66.7303258,21.7212903 C73.1815297,23.2645161 72.854136,24.1651613 71.3164164,25.88 C69.9926629,27.3612903 71.0173796,28.2012903 68.0940368,27.2425806 C65.1706941,26.283871 61.1620538,23.9019355 59.1732011,23.3574194 C56.2782153,22.5612903 56.6494334,21.1845161 57.9126062,18.7122581 C59.175779,16.24 59.6294901,14.7793548 62.5528329,9.98322581 C65.4761756,5.18709677 62.922762,5.86709677 69.5582861,5.33806452 Z M47.7853116,14.6722581 C47.6847734,11.1883871 45.8518839,1.79354839 40.4266856,0.443870968 C35.6575637,-0.741935484 35.7400567,3.42064516 37.3525354,11.5187097 C38.9650142,19.6167742 39.4148584,23.7032258 43.0484136,22.5935484 C46.6819688,21.483871 47.8858499,18.1535484 47.7853116,14.6722581 Z M43.5098584,18.4516129 C41.9966289,19.9316129 41.86,16.2580645 41.031204,12.1483871 C40.2024079,8.03870968 39.0049717,2.29806452 41.9850283,5.13290323 C44.0563739,7.10451613 45.4677762,16.5393548 43.5098584,18.4516129 Z M88.9466997,11.5445161 C86.8469972,8.41548387 84.7240935,7.20516129 81.3496176,6.09548387 C77.9751416,4.98580645 79.4329462,7.56 78.5306799,11.4541935 C77.4750283,16.003871 78.0769688,17.5354839 75.0028187,22.9974194 C71.8577762,28.5858065 71.701813,27.6141935 75.0028187,29.1522581 C77.9261615,30.5148387 77.5884561,29.243871 79.6894476,24.5612903 C81.4269547,20.6903226 81.7285694,22.2658065 82.3601558,24.3032258 C83.4686544,27.8903226 83.3681161,29.6206452 86.0143343,28.7690323 C88.6605524,27.9174194 88.1282153,26.8696774 87.3754674,25.6722581 C86.8598867,24.8374194 86.7812606,24.356129 86.1264731,22.8864516 C85.1082011,20.6012903 88.2300425,22.3509677 89.8644334,20.0709677 C91.7849717,17.4090323 90.6661615,14.1070968 88.9466997,11.5445161 Z M83.0084986,18.3445161 C80.8701275,17.8051613 81.765949,16.6090323 82.19517,14.6877419 C82.918272,11.4541935 83.2263314,10.7883871 85.4304391,12.8412903 C87.3535552,14.6296774 88.056034,19.6129032 83.0084986,18.3445161 Z M18.6459773,2.0516129 C18.6782011,3.23870968 17.3144901,3.94967742 15.5653824,3.99741935 C13.8162748,4.04516129 12.3430028,3.41032258 12.310779,2.22322581 C12.2785552,1.03612903 13.6628895,-0.178064516 15.683966,0.0219354839 C17.7050425,0.221935484 18.6137535,0.864516129 18.6459773,2.0516129 Z M12.9320538,7.49548387 C12.9629887,8.64774194 11.8338669,9.83612903 9.75994334,9.62709677 C7.68601983,9.41806452 6.75668555,8.77419355 6.72575071,7.61290323 C6.69481586,6.4516129 7.41018414,5.47225806 9.64909348,5.44645161 C11.8880028,5.42064516 12.901119,6.34193548 12.9320538,7.49548387 Z M8.59473088,13.0554839 C8.46583569,14.6683871 7.36249292,15.0658065 5.73970255,15.1070968 C4.11691218,15.1483871 2.74933428,14.4619355 2.71711048,13.2064516 C2.68488669,11.9509677 3.94934844,11.196129 5.57213881,11.1548387 C7.19492918,11.1135484 8.72104816,11.4425806 8.59473088,13.0554839 Z M6.5092068,20.2064516 C6.74895184,21.6258065 5.64432011,22.803871 3.83463173,23.3470968 C2.47607649,23.7548387 0.30805949,22.7729032 0.0283569405,21.3509677 C-0.180453258,20.2929032 0.782393768,18.6283871 2.99294618,18.5587097 C5.20349858,18.4890323 6.26946176,18.7896774 6.5092068,20.2064516 Z M13.3187394,31.5083871 C13.4592351,34.3212903 11.0089377,35.4180645 8.11524079,35.8954839 C5.90211048,36.2632258 2.88338527,35.5277419 2.44385269,33.0141935 C2.12677054,31.2193548 3.10766289,28.196129 7.01963173,27.9548387 C12.152238,27.64 13.2182011,29.5058065 13.3187394,31.5083871 Z" id="toes" fill="#404080" fill-rule="nonzero"></path>
                    </g>
                </g>
            </g>
        </g>
    </g>
</svg>

<svg xmlns="http://www.w3.org/2000/svg" width="91" height="36" viewBox="0 0 91 36">
  <g fill="none">
    <path fill="#66F" d="M30.935 12.788c-5.7-3.464-13.412.342-8.422-4.75 5.398-5.51 7.938-1.994 8.543.605.576 2.477 5.352.59 4.158-3.936C34.38 1.547 29.13.052 25.458.693c-4.76.83-13.366 7.573-13.147 17.184.27 11.59 5.44 17.033 11.56 17.785 12.38 1.53 15.49-17.757 7.07-22.874zm-1.357 10.567c-.832 6.464-5.445 6.56-8.453 3.384-2.823-2.98-4.33-9.46-.2-9.79 5.188-.42 9.12 2.76 8.653 6.4z"/>
    <path fill="#404080" d="M49.928 15.834c-.432-3.11-1.942-8.995-3.02-11.963-1.08-2.96 1.63-.8 3.034-.19 1.403.61 2.074 3.33 2.905 7.52.773 3.88.516 1.8 1.994-1.06 2.32-4.49 1.84-4.34 4.29-4.29 1.72.04 3.13.05 1.26 2.37-1.87 2.32-3.63 5.91-4.48 9.44-.853 3.53-2.01 3.54-3.93 3.18-2.82-.53-1.46-.844-2.04-4.993zm19.63-10.496c10.13-.806 7.306.014 7.256 2.937-.05 2.922-.302 2.52-5.494 2.064-3.074-.36-3.426 0-4.485 1.72-1.06 1.73 1.058.79 4.182 2.202 3.125 1.413 4.436.605 3.428 3.38-.806 2.573-1.59 2.456-5.645.404-1.71-.866-4.483-1.615-5.292-.15-.81 1.462-3.23 2.27 3.222 3.81 6.452 1.545 6.124 2.445 4.586 4.16-1.323 1.48-.3 2.32-3.222 1.363-2.923-.96-6.932-3.34-8.92-3.887-2.896-.794-2.525-2.17-1.26-4.643 1.262-2.47 1.715-3.93 4.64-8.73 2.922-4.793.37-4.113 7.004-4.642zm-21.773 9.334c-.1-3.484-1.933-12.878-7.358-14.228-4.77-1.186-4.687 2.977-3.074 11.075 1.612 8.09 2.062 12.18 5.695 11.07 3.634-1.11 4.838-4.44 4.737-7.92zm-4.275 3.78c-1.513 1.48-1.65-2.194-2.48-6.304-.828-4.11-2.025-9.85.955-7.015 2.07 1.972 3.483 11.406 1.525 13.32zm45.437-6.907c-2.1-3.13-4.223-4.34-7.597-5.45-3.375-1.11-1.917 1.465-2.82 5.36-1.055 4.55-.453 6.08-3.527 11.542-3.145 5.59-3.3 4.617 0 6.155 2.923 1.363 2.585.092 4.686-4.59 1.73-3.872 2.04-2.296 2.67-.26 1.11 3.588 1 5.32 3.65 4.467 2.64-.86 2.11-1.9 1.36-3.1-.52-.84-.6-1.32-1.25-2.79-1.02-2.29 2.1-.54 3.74-2.82 1.92-2.66.8-5.966-.92-8.528zm-5.94 6.8c-2.137-.54-1.24-1.736-.812-3.657.723-3.234 1.03-3.9 3.235-1.847 1.924 1.79 2.626 6.78-2.422 5.51zM18.647 2.052c.03 1.187-1.332 1.898-3.08 1.945-1.75.048-3.223-.587-3.255-1.774-.03-1.187 1.353-2.4 3.374-2.2 2.02.2 2.93.842 2.962 2.03zM12.93 7.495c.03 1.153-1.098 2.34-3.172 2.132-2.074-.21-3.003-.853-3.034-2.014-.03-1.16.684-2.14 2.923-2.167 2.238-.025 3.25.896 3.282 2.05zm-4.337 5.56c-.13 1.613-1.233 2.01-2.855 2.052-1.623.04-2.99-.645-3.023-1.9-.032-1.256 1.232-2.01 2.855-2.052 1.623-.04 3.15.288 3.023 1.9zm-2.086 7.15c.24 1.42-.866 2.6-2.675 3.142-1.36.408-3.527-.574-3.807-1.996-.208-1.05.754-2.72 2.965-2.79 2.21-.07 3.276.23 3.516 1.65zm6.81 11.303c.14 2.813-2.31 3.91-5.205 4.387-2.213.368-5.232-.367-5.67-2.88-.318-1.796.663-4.82 4.575-5.06 5.132-.315 6.198 1.55 6.3 3.553z"/>
  </g>
</svg>
